X:517
T:Balquidder Lasses
S:Jim Coon, internet
Z:Nigel Gatherer
M:4/4
L:1/8
K:Edor
BA | G2 FG EFGA  | B2 B2 e4    | d2 A2 ABAF | DEFG A2 
BA | G2 FG EFGA  | B2 B2 e4    | d2 A2 BAGF | E6      :|
B2 | e2 ef e2 B2 | efgf  e2 Bc | d2 de dAFA | DEFG A2 
B2 | e2 ef e2 B2 | efgf  e2 Bc | d2 A2 BAGF | E6      
B2 | e2 ef e2 B2 | efgf  e2 Bc | d2 de dAFA | DEFG A2 
BA | G2 FG EFGA  | B2 B2 e4    | d2 A2 BAGF | E6      |]
<end>
<start>
